X:1
T:SOME ENCHANTED EVENING
T:From the Musical "South Pacific" 
T:Richard Rodgers
T:Arr. by hmscomp
%%score { ( 1 2 ) | ( 3 4 ) }
L:1/8
Q:1/4=88
M:4/4
K:C
V:1 treble nm="Piano"
V:2 treble 
V:3 bass 
V:4 bass 
V:1
"^Andante" G^FAG G2 C2- |[Q:1/4=92] C8 |!mp! G^FAG G2 B2- | B8 | G^FAG G2 [EGc-]2 | %5
 [^G,c]2 [E^Gc]2 [EGc]2 [EGc]2 | A3 E D4 | z2!mp! D2 (3E2 G2 E2 | D8- | D2 D2 (3[^G,B,E]2 =G2 E2 | %10
 C8 | C2 [FA]2 (3B2 c2 d2 | [DFAc]2 [CDFB]4 [CFA]2 | [A,CG]2 [F,A,CE]4 [F,B,D]2 |[Q:1/4=84]!p! E8 | %15
 x2 x2 x4 |!f![Q:1/4=92] G^FAG G2 C2- | C2 x2 x4 | [Gg][^F^f][Aa][Gg] [Gg]2 [Bb]2- | [Bb]8 | %20
 G^FAG G2 [EGc-]2 | [^G,c]2 [E^Gc]2 [EGc]2 [EGc]2 | A3!mf! E D4 | z2 D2 (3E2 G2 E2 | D8- | %25
 D2!mp! D2 (3[^G,DE]2 =G2 E2 | C8 | C2!mp!!<(! [FA]2 (3B2 c2 d2!<)! | %28
!mf! [DFAc]2 [CDFB]4!>(! [CFA]2 | [A,CG]2 [F,A,CE]4 [F,B,D]2!>)! | %30
!mp![Q:1/4=86]"^rit." C8-[Q:1/4=83] | C2 |!p![Q:1/4=80]"^Adagio" f2 ff [Gde]2 e2 | dddd [Ec]4 | %34
 f2!<(! ff [Gde]2 e2 | d2 d2 d2 d2!<)! |!f![Q:1/4=84]"^accel."!<(! [GBg]2 ^cd [_EA=c_e]2 de!<)! | %37
[Q:1/4=88] [E_B^ce]2 ^de !tenuto![A=c=df]2 !tenuto![Ac_e^f]2 | [Geg][^F^f]a[Gg] [Geg]2 [EGc]2- | %39
 [EGc]8 | [Gcdg][^F^f][Ada][Gg] [Gg]2 [B=fb]2- | [B=fb]8 | [Geg][^F^f][Aa][Gg] [Gg]2 [cgc']2 | %43
 ^G,2 [c^gc']2 [cgc']2 [cgc']2 | [Aea]3 [Ee] [Dd]4 | A,2!ff! [DAd]2 (3[EGe]2 [Gg]2 [Ee]2 | d8 | %47
 [F,A,]2!ff! [DAd]2 (3[E^Gce]2 [Gg]2 [Ee]2 | [cc']8- | [cc']2!ff! [Afa]2 (3[Bgb]2 [cgc']2 [dgd']2 | %50
 [cfc']2 [Bfb]4!f! [Afa]2 |[Q:1/4=84]"^rit."!>(! [cfac']2 [Afa]4 !tenuto![dgbd']2!>)! | %52
!mp! [cec']8-[Q:1/4=84] | [cec']2 | f2 ff [Gde]2 e2 | dddd[Q:1/4=78]"^smorz." [Ec]4 | %56
 f2!>(! ff [Gde]2 e2 |[Q:1/4=72] [FAd]4 [Acf]4 | [Adfa]4 [cfac']4 | [CEGcegc'e']8-!>)! | %60
!ppp! [CEGcegc'e']8 |] %61
V:2
 z2 [CE]2 z2 x2 | x8 | x8 | x8 | z2 [CE]2 z2 x2 | x8 | z2 [A,C]2 z2!p! [A,C]2 | A,4 [G,C]4 | %8
 z2 [A,C]2 F,2 B,2 | [F,A,]2 [F,A,]2 x4 | z2 A,2 z2 _B,2 | A,4 [EG]4 | x8 | x8 | %14
 C2!<(! [B,GB]2 _B,2 [B,EG_B]2 | [^G,CE]2 [CE^G]2 ^F,2!<)! [C_E^F]2 | [G,CE]2 [CE]2 z2 x2 | %17
 z GAB cdef | x8 | x8 | [G,CE]2 [CE]2 z2 x2 | x8 | z2!mp! [A,C]2 z2!mp! [A,C]2 | A,4 [G,C]4 | %24
 z2!p! [A,C]2 F,2 B,2 | [F,A,]2 [F,A,]2 x4 | z2!p! A,2 z2 _B,2 | A,4 [EG]4 | x8 | x8 | %30
 z2!>(! Gg GgGg | Gg!>)! | [Gc]2 [GB]2 x2 [Gc]2 | [Fc]2 [FB]2 A2 G2 | [Gc]2 [GB]2 x2 [Gc]2 | %35
 [EGc]4 [^Fc]4 | x8 | x8 | x2 [Ae]2 x4 | x8 | x8 | x8 | z2 e2 z2 x2 | x8 | z2 [A,C]2 x2 [FA]2 | %45
 x8 | D2 [CFA]2 B,2 [B,FG]2 | x8 | z2!mf! [EAc]2 _B,2 [EGc]2 | A,2 x6 | x8 | x8 | z2!p! Gg GgGg | %53
 Gg | [Gc]2 [GB]2 x2 [Gc]2 | [Fc]2 [FB]2 A2 G2 | [Gc]2 [GB]2 x2 [Gc]2 | x8 | x8 | x8 | x8 |] %61
V:3
!p!!pp!!ped! !arpeggio![C,,G,,E,]2 G,2 C,2 [E,G,]2!ped-up! | %1
!ped! [E,,E,]2 [G,CE]2 [C,,C,]2 [G,CE]2!ped-up! | %2
!p!!ped! [D,,D,]2 [D,F,G,B,]2!ped-up!!ped! [G,,,G,,]2 [D,F,G,B,]2!ped-up! | %3
!ped! [D,,D,]2 [D,F,G,B,]2 [G,,,G,,]2 [F,G,B,D]2!ped-up! | %4
!mf!!mp!!ped! !arpeggio![C,,G,,E,]2 G,2 C,2 C2!ped-up! | %5
!ped! [E,,E,]2 [E,^G,C]2 [E,,E,]2 [E,G,C]2!ped-up! | %6
!ped! [F,,F,]2!mp! C,2!ped-up!!ped! [C,,C,]2 F,2!ped-up! | %7
!ped! F,2 C,2!ped-up!!ped! z2 C,2!ped-up! |!ped! D,,2!p! D,2!ped-up!!ped! G,,,2 D,2!ped-up! | %9
!ped! D,,2!mp! D,2!ped-up!!ped! [E,,D,]2 E,2!ped-up! | %10
!ped! z2!p! [C,E,]2!ped-up!!ped! E,2 [C,E,G,]2!ped-up! | %11
!ped! [F,,C,]2!mp! C,2!ped-up!!ped! [E,,C,E,]2 G,2!ped-up! | %12
!ped! !arpeggio![D,,A,,F,]2 z2!ped-up!!ped! [F,,F,]2 [F,A,]2!ped-up! | %13
!ped! [D,,D,]4!ped! [G,,,G,,]4!ped-up! |!ped! [E,G,]2 G,2!ped-up!!ped! [C,E,G,]2 [E,G,C]2!ped-up! | %15
!ped! z2 [E,^G,]2!ped-up!!ped! [C,E,]2 [_E,^F,]2!ped-up! | %16
!mf!!ped! !arpeggio![C,,G,,E,]2 G,2!ped-up!!ped! [C,,C,]2 [E,G,]2!ped-up! | %17
!ped! [E,,E,]2 [E,G,C]2!ped-up!!ped! [G,CE]2 [CEG]2!ped-up! | %18
!ped! [D,,D,]2 [D,F,G,B,]2 [G,,,G,,]2 [D,F,G,B,]2!ped-up! | %19
!ped! [D,,D,]2 [D,F,G,B,]2 [G,,,G,,]2 [F,G,B,D]2!ped-up! | %20
!ped! !arpeggio![C,,G,,E,]2 G,2!ped-up!!ped! [C,,C,]2 C2!ped-up! | %21
!ped! [E,,E,]2 [E,^G,C]2 [E,,E,]2 [E,G,C]2!ped-up! |!ped! [F,,F,]2 C,2!ped-up!!ped! [C,,C,]2 F,2 | %23
!ped! F,2 C,2!ped-up!!ped! z2 C,2!ped-up! |!ped! D,,2!mp! D,2!ped-up!!ped! G,,,2 D,2!ped-up! | %25
!ped! D,,2 D,2!ped-up!!ped! [E,,D,]2 E,2!ped-up! | %26
!ped! z2 [C,E,]2!ped-up!!ped! E,2 [C,E,G,]2!ped-up! | %27
!ped! [F,,C,]2 C,2!ped-up!!ped! [E,,C,E,]2 G,2!ped-up! | %28
!ped! !arpeggio![D,,A,,F,]2 z2!ped-up!!ped! [F,,F,]2 [F,A,]2!ped-up! | %29
!ped! [D,,D,]4!ped-up!!ped! [G,,,G,,]4!ped-up! |!ped! [C,,-C,-E,-G,]8!ped-up! | [C,,C,E,]2 | %32
!ped! D2!ped-up! G,2!ped-up!!ped! C2 G,2 |!ped! D2 G,2!ped! C2 G,2!ped-up! | %34
!ped! D2 G,2!ped-up!!ped! C2 G,2!ped-up! |!ped! A,2 A,,2!ped-up!!ped! D,2 D,,2!ped-up! | %36
!ped! !arpeggio![G,,D,B,]2 [^C,,^C,][D,,D,]!ped-up!!ped! [G,,G,]2 [D,,D,][_E,,_E,]!ped-up! | %37
!ped! [G,,G,]2 [^D,,^D,][E,,E,]!ped-up!!ped! [G,,G,]2 [A,C_E^F]2!ped-up! | %38
!ff!!f!!ped! !arpeggio![C,,G,,E,]2 [A,CE]2 [C,,C,]2 [E,G,C]2!ped-up! | %39
!ped! [E,,E,]2 [G,CE]2!ped-up!!ped! [C,,C,]2 [G,CE]2 | %40
!ped! [D,,D,]2 [A,CDF]2!ped-up!!ped! [G,,,G,,]2 [B,=FG]2!ped-up! | %41
!ped! [D,,D,]2 [D,F,G,B,]2!ped-up!!ped! [G,,,G,,]2 [F,G,B,D]2!ped-up! | %42
!ped! !arpeggio![C,,G,,E,]2 [G,CE]2 [C,,C,]2 [G,CE]2!ped-up! | %43
!ped! [E,,E,]2 [^G,CE]2 [E,,E,]2 [G,CE]2!ped-up! | %44
!ped! [F,,F,]2 C,2!ped-up!!ped! [C,,C,]2!mf! [F,A,]2!ped-up! | %45
!ped! [F,,F,]2!f! [A,C]2!ped-up!!ped! [E,,E,]2 [G,CE]2!ped-up! | %46
!ped! [D,,D,]2!mf! A,2!ped-up!!ped! [G,,,G,,]2 G,2!ped-up! | %47
!ped! [D,,D,]2!f! [A,C]2!ped-up!!ped! [E,,E,]2 [E,^G,D]2!ped-up! | %48
!ped! [A,,,A,,]2 [E,A,C]2!ped-up!!ped! [G,,,G,,]2 [E,_B,C]2!ped-up! | %49
!ped! [F,,,F,,]2!f! [A,CF]2!ped-up!!ped! [E,,E,]2 [G,CE]2!ped-up! | %50
!ped! [D,,D,]2 [A,DF]2!ped-up!!ped! [F,,F,]2 [A,DF]2!ped-up! | %51
!ped! [G,,,G,,]2 [A,CF]2!ped-up!!ped! [G,,,G,,]2 [G,B,DF]2!ped-up! |!ped! [C,,C,]8-!ped-up! | %53
 [C,,C,]2 |!ped! D2!ped-up! G,2!ped-up!!ped! C2 G,2 |!ped! D2 G,2!ped-up!!ped! C2 G,2!ped-up! | %56
!ped! D2 G,2!ped-up!!ped! C2 G,2!ped-up! |!ped! C2 G,2!ped-up!!ped! C2 G,2!ped-up! | %58
!ped! C2 G,2!ped-up!!ped! C2 !tenuto!G,2!ped-up! |!ped! z8!ped-up! | !fermata![C,,C,E,G,C]8 |] %61
V:4
 x8 | x8 | x8 | x8 | x8 | x8 | x8 | F,,4 G,,4 | x8 | x8 | A,,4 G,,4 | x8 | x8 | x8 | %14
 [C,,C,]4 [G,,,G,,]4 | [C,,C,]4 [C,,G,,]4 | x8 | x8 | x8 | x8 | x8 | x8 | x8 | F,,4 G,,4 | x8 | %25
 x8 | A,,4 G,,4 | x8 | x8 | x8 | z2 G,G G,GG,G | G,G | x8 | x8 | x8 | x8 | x8 | x8 | x8 | x8 | x8 | %41
 x8 | x8 | x8 | x8 | x8 | x8 | x8 | x8 | x8 | x8 | x8 | z2 G,G G,GG,G | G,G | x8 | x8 | x8 | x8 | %58
 x8 | x8 | x8 |] %61

